assets/src/site/img/icon-list-close.svg

<svg viewBox="0 0 64 64" version="1" xmlns="http://www.w3.org/2000/svg" fill-rule="evenodd" clip-rule="evenodd" stroke-linejoin="round" stroke-miterlimit="1"><path d="M32 30L62 0l2 2-30 30 30 30-2 2-30-30L2 64l-2-2 30-30L0 2l2-2 30 30z"/></svg>

<?xml version="1.0" encoding="UTF-8" standalone="no"?>
<!DOCTYPE svg PUBLIC "-//W3C//DTD SVG 1.1//EN" "http://www.w3.org/Graphics/SVG/1.1/DTD/svg11.dtd">
<svg width="100%" height="100%" viewBox="0 0 64 64" version="1.1" xmlns="http://www.w3.org/2000/svg" xmlns:xlink="http://www.w3.org/1999/xlink" xml:space="preserve" xmlns:serif="http://www.serif.com/" style="fill-rule:evenodd;clip-rule:evenodd;stroke-linejoin:round;stroke-miterlimit:1.41421;">
    <path d="M32,30L62,0L64,2L34,32L64,62L62,64L32,34L2,64L0,62L30,32L0,2L2,0L32,30Z"/>
</svg>
